app/dist/common/images/neuren-pharmaceuticals-ltd.svg

<svg height="18" viewBox="0 0 18 18" width="18" xmlns="http://www.w3.org/2000/svg"><path d="m0 0h18v18h-18z" fill="#f0f3fa"/><path d="m7.15 5c-2.3 0-4.15 1.8-4.15 4s1.86 4 4.15 4h3.7c2.3 0 4.15-1.8 4.15-4s-1.86-4-4.15-4zm-1.15 1h1v1.09a3.66 3.66 0 0 1 2.56-1.09c1.95 0 2.44 1.29 2.44 1.93v4.07h-1v-3.66c0-1.02-.99-1.32-1.44-1.34-1.28 0-2.19.76-2.56 1.23v3.77h-1z" fill="#323554"/></svg>

<!-- by TradingView --><svg width="18" height="18" viewBox="0 0 18 18" xmlns="http://www.w3.org/2000/svg"><path fill="#F0F3FA" d="M0 0h18v18H0z"/><path d="M7.15 5C4.85 5 3 6.8 3 9s1.86 4 4.15 4h3.7c2.3 0 4.15-1.8 4.15-4s-1.86-4-4.15-4h-3.7ZM6 6h1v1.09A3.66 3.66 0 0 1 9.56 6C11.51 6 12 7.29 12 7.93V12h-1V8.34c0-1.02-.99-1.32-1.44-1.34C8.28 7 7.37 7.76 7 8.23V12H6V6Z" fill="#323554"/></svg>
